X:143
T:The Man in the Moon
C:Trad
R:Waltz
M:3/4
L:1/8
K:G
D2|:G3A G2|F2E2D2|G3A B2|c4 de|
  |1 d4 d2|e2d2c2|B2A2G2|A4 D2:|2 d2B2G2|c2A2F2|G3AG2|G4 Bc:|
  |:d2 ed ed|d2c2B2|c2A2B2|c6|
  |B3A GA|B2A2G2|E2F2G2|A4D2|
  |G3A G2|F2E2D2|G2A2B2|c4de|
  |d2B2G2|c2A2F2|G3AG2|1 G4 Bc:|2 G4 D2|
